src/content/resume/images/jonas-lekevicius.svg

<svg width="128" height="64" viewBox="0 0 128 64" fill="none" xmlns="http://www.w3.org/2000/svg">
<path d="M64 54C76.1503 54 86 44.1503 86 32C86 26.4205 83.923 21.3262 80.5 17.448V32C80.5 41.1127 73.1127 48.5 64 48.5C62.0715 48.5 60.2203 48.1692 58.5 47.5611V32C58.5 28.9624 60.9624 26.5 64 26.5V21C57.9249 21 53 25.9249 53 32V51.0568C56.2359 52.9287 59.9928 54 64 54Z" fill="currentColor"/>
<path d="M47.5 46.552V32C47.5 22.8873 54.8873 15.5 64 15.5C65.9285 15.5 67.7797 15.8308 69.5 16.4389V32C69.5 35.0376 67.0376 37.5 64 37.5V43C70.0751 43 75 38.0751 75 32V12.9432C71.7641 11.0713 68.0072 10 64 10C51.8497 10 42 19.8497 42 32C42 37.5795 44.077 42.6738 47.5 46.552Z" fill="currentColor"/>
</svg>

<svg xmlns="http://www.w3.org/2000/svg" width="128" height="64" fill="none" viewBox="0 0 128 64"><path fill="currentColor" d="M64 54c12.15 0 22-9.85 22-22 0-5.58-2.077-10.674-5.5-14.552V32c0 9.113-7.387 16.5-16.5 16.5-1.928 0-3.78-.33-5.5-.939V32a5.5 5.5 0 0 1 5.5-5.5V21c-6.075 0-11 4.925-11 11v19.057A21.898 21.898 0 0 0 64 54Z"/><path fill="currentColor" d="M47.5 46.552V32c0-9.113 7.387-16.5 16.5-16.5 1.928 0 3.78.33 5.5.939V32a5.5 5.5 0 0 1-5.5 5.5V43c6.075 0 11-4.925 11-11V12.943A21.898 21.898 0 0 0 64 10c-12.15 0-22 9.85-22 22 0 5.58 2.077 10.674 5.5 14.552Z"/></svg>
